public/assets/img/components/logo-fortify.svg

<svg width="264" height="48" viewBox="0 0 264 48" fill="none" xmlns="http://www.w3.org/2000/svg">
<rect width="264" height="48" fill="white"/>
<path d="M74.09 30.04V13H69.95V34H82.1V30.04H74.09Z" fill="black"/>
<path d="M95.379 19V20.77C94.299 19.42 92.679 18.58 90.489 18.58C86.499 18.58 83.199 22.03 83.199 26.5C83.199 30.97 86.499 34.42 90.489 34.42C92.679 34.42 94.299 33.58 95.379 32.23V34H99.249V19H95.379ZM91.209 30.73C88.839 30.73 87.069 29.02 87.069 26.5C87.069 23.98 88.839 22.27 91.209 22.27C93.609 22.27 95.379 23.98 95.379 26.5C95.379 29.02 93.609 30.73 91.209 30.73Z" fill="black"/>
<path d="M106.628 21.58V19H102.758V34H106.628V26.83C106.628 23.68 109.178 22.78 111.188 23.02V18.7C109.298 18.7 107.408 19.54 106.628 21.58Z" fill="black"/>
<path d="M124.295 19V20.77C123.215 19.42 121.595 18.58 119.405 18.58C115.415 18.58 112.115 22.03 112.115 26.5C112.115 30.97 115.415 34.42 119.405 34.42C121.595 34.42 123.215 33.58 124.295 32.23V34H128.165V19H124.295ZM120.125 30.73C117.755 30.73 115.985 29.02 115.985 26.5C115.985 23.98 117.755 22.27 120.125 22.27C122.525 22.27 124.295 23.98 124.295 26.5C124.295 29.02 122.525 30.73 120.125 30.73Z" fill="black"/>
<path d="M141.544 19L137.884 29.5L134.254 19H129.994L135.694 34H140.104L145.804 19H141.544Z" fill="black"/>
<path d="M150.354 28.09H161.664C161.754 27.58 161.814 27.07 161.814 26.5C161.814 22.09 158.664 18.58 154.224 18.58C149.514 18.58 146.304 22.03 146.304 26.5C146.304 30.97 149.484 34.42 154.524 34.42C157.404 34.42 159.654 33.25 161.064 31.21L157.944 29.41C157.284 30.28 156.084 30.91 154.584 30.91C152.544 30.91 150.894 30.07 150.354 28.09ZM150.294 25.09C150.744 23.17 152.154 22.06 154.224 22.06C155.844 22.06 157.464 22.93 157.944 25.09H150.294Z" fill="black"/>
<path d="M164.516 34H168.386V12.1H164.516V34Z" fill="black"/>
<path d="M191.908 14.98V13H180.058V34H182.158V24.7H191.458V22.72H182.158V14.98H191.908Z" fill="black"/>
<path d="M202.188 34.36C206.568 34.36 210.078 30.94 210.078 26.5C210.078 22.06 206.568 18.64 202.188 18.64C197.808 18.64 194.298 22.06 194.298 26.5C194.298 30.94 197.808 34.36 202.188 34.36ZM202.188 32.44C198.858 32.44 196.278 29.83 196.278 26.5C196.278 23.17 198.858 20.56 202.188 20.56C205.518 20.56 208.098 23.17 208.098 26.5C208.098 29.83 205.518 32.44 202.188 32.44Z" fill="black"/>
<path d="M215.371 21.49V19H213.391V34H215.371V25.66C215.371 21.94 217.711 20.68 220.111 20.68V18.76C218.191 18.76 216.421 19.39 215.371 21.49Z" fill="black"/>
<path d="M231.068 20.92V19H226.748V14.8L224.768 15.4V19H221.618V20.92H224.768V30.01C224.768 33.61 227.018 34.6 231.068 34V32.26C228.158 32.38 226.748 32.59 226.748 30.01V20.92H231.068Z" fill="black"/>
<path d="M235.358 15.82C236.168 15.82 236.798 15.16 236.798 14.38C236.798 13.6 236.168 12.94 235.358 12.94C234.548 12.94 233.918 13.6 233.918 14.38C233.918 15.16 234.548 15.82 235.358 15.82ZM234.368 34H236.348V19H234.368V34Z" fill="black"/>
<path d="M248.049 14.56V12.64C243.999 12.34 241.749 14.5 241.749 18.4V19H239.199V20.92H241.749V34H243.729V20.92H248.049V19H243.729V18.4C243.729 15.52 245.139 14.32 248.049 14.56Z" fill="black"/>
<path d="M261.545 19L256.685 31.57L251.045 19H248.945L255.665 34.09L255.275 35.02C254.465 36.97 253.115 38.35 251.165 38.14V40C253.865 40.21 256.085 38.26 257.225 35.38L263.645 19H261.545Z" fill="black"/>
<circle cx="24" cy="24" r="24" fill="#31C48D"/>
<path fill-rule="evenodd" clip-rule="evenodd" d="M3.5679 36.5972L6.40001 16L12 13.4545V17.25L18 14.625V10.7273L24 8V48C15.3654 48 7.79586 43.4402 3.5679 36.5972ZM15 23C16.1046 23 17 23.8954 17 25V33.3125L13 34.0625V25C13 23.8954 13.8954 23 15 23Z" fill="#DEF7EC"/>
<path fill-rule="evenodd" clip-rule="evenodd" d="M44.4321 36.5972C40.2042 43.4402 32.6346 48 24 48V8L30 10.7273V14.625L36 17.25V13.4545L41.6 16L44.4321 36.5972ZM33 23C31.8954 23 31 23.8954 31 25V33.3125L35 34.0625V25C35 23.8954 34.1046 23 33 23Z" fill="#014737"/>
</svg>

<svg width="264" height="48" fill="none" xmlns="http://www.w3.org/2000/svg"><g id="word"><path d="M74.09 30.04V13h-4.14v21H82.1v-3.96h-8.01zM95.379 19v1.77c-1.08-1.35-2.7-2.19-4.89-2.19-3.99 0-7.29 3.45-7.29 7.92s3.3 7.92 7.29 7.92c2.19 0 3.81-.84 4.89-2.19V34h3.87V19h-3.87zm-4.17 11.73c-2.37 0-4.14-1.71-4.14-4.23 0-2.52 1.77-4.23 4.14-4.23 2.4 0 4.17 1.71 4.17 4.23 0 2.52-1.77 4.23-4.17 4.23zM106.628 21.58V19h-3.87v15h3.87v-7.17c0-3.15 2.55-4.05 4.56-3.81V18.7c-1.89 0-3.78.84-4.56 2.88zM124.295 19v1.77c-1.08-1.35-2.7-2.19-4.89-2.19-3.99 0-7.29 3.45-7.29 7.92s3.3 7.92 7.29 7.92c2.19 0 3.81-.84 4.89-2.19V34h3.87V19h-3.87zm-4.17 11.73c-2.37 0-4.14-1.71-4.14-4.23 0-2.52 1.77-4.23 4.14-4.23 2.4 0 4.17 1.71 4.17 4.23 0 2.52-1.77 4.23-4.17 4.23zM141.544 19l-3.66 10.5-3.63-10.5h-4.26l5.7 15h4.41l5.7-15h-4.26zM150.354 28.09h11.31c.09-.51.15-1.02.15-1.59 0-4.41-3.15-7.92-7.59-7.92-4.71 0-7.92 3.45-7.92 7.92s3.18 7.92 8.22 7.92c2.88 0 5.13-1.17 6.54-3.21l-3.12-1.8c-.66.87-1.86 1.5-3.36 1.5-2.04 0-3.69-.84-4.23-2.82zm-.06-3c.45-1.92 1.86-3.03 3.93-3.03 1.62 0 3.24.87 3.72 3.03h-7.65zM164.516 34h3.87V12.1h-3.87V34zM191.908 14.98V13h-11.85v21h2.1v-9.3h9.3v-1.98h-9.3v-7.74h9.75zM202.188 34.36c4.38 0 7.89-3.42 7.89-7.86s-3.51-7.86-7.89-7.86-7.89 3.42-7.89 7.86 3.51 7.86 7.89 7.86zm0-1.92c-3.33 0-5.91-2.61-5.91-5.94 0-3.33 2.58-5.94 5.91-5.94s5.91 2.61 5.91 5.94c0 3.33-2.58 5.94-5.91 5.94zM215.371 21.49V19h-1.98v15h1.98v-8.34c0-3.72 2.34-4.98 4.74-4.98v-1.92c-1.92 0-3.69.63-4.74 2.73zM231.068 20.92V19h-4.32v-4.2l-1.98.6V19h-3.15v1.92h3.15v9.09c0 3.6 2.25 4.59 6.3 3.99v-1.74c-2.91.12-4.32.33-4.32-2.25v-9.09h4.32zM235.358 15.82a1.44 1.44 0 100-2.88 1.44 1.44 0 000 2.88zm-.99 18.18h1.98V19h-1.98v15zM248.049 14.56v-1.92c-4.05-.3-6.3 1.86-6.3 5.76v.6h-2.55v1.92h2.55V34h1.98V20.92h4.32V19h-4.32v-.6c0-2.88 1.41-4.08 4.32-3.84zM261.545 19l-4.86 12.57-5.64-12.57h-2.1l6.72 15.09-.39.93c-.81 1.95-2.16 3.33-4.11 3.12V40c2.7.21 4.92-1.74 6.06-4.62l6.42-16.38h-2.1z"/></g><circle cx="24" cy="24" r="24" fill="#31C48D"/><path fill-rule="evenodd" clip-rule="evenodd" d="M3.568 36.597L6.4 16l5.6-2.546v3.796l6-2.625v-3.898L24 8v40c-8.635 0-16.204-4.56-20.432-11.403zM15 23a2 2 0 012 2v8.313l-4 .75V25a2 2 0 012-2z" fill="#DEF7EC"/><path fill-rule="evenodd" clip-rule="evenodd" d="M44.432 36.597C40.204 43.44 32.635 48 24 48V8l6 2.727v3.898l6 2.625v-3.796L41.6 16l2.832 20.597zM33 23a2 2 0 00-2 2v8.313l4 .75V25a2 2 0 00-2-2z" fill="#014737"/><style>#word{fill:#2e2e2e}@media (prefers-color-scheme:dark){#word{fill:#fff}}</style></svg>
